X: 23180
T: Le Reel De Violon Du Monte En Vielle
R: reel
M: 4/4
K: Amixolydian
|:a2ab afeg|f2fg fedf|(3eee ef e^gae|fedf eA{cB}A|
a2ab afeg|f2fg fedf|(3eee ef e2cA|BABc {AB}A4:|
|:A2 (3Bcd ecAc|afdf e2ef|e2cA BA^GA|[M:2/4]BdcB|
A2 (3Bcd ecAc|afdf e2ef|e2cA BA^GB|1 [M:2/4]A2E2:|2||
|:A2cA BAcA|dBBd cAAB|(3AAA cA BAcA|dBBd cAA^G|
A2cA BAcA|dBBd cAAB|(3AAA cA BAcA|dBBd cAA^G|1 [M:2/4]A2E2:|2 [M:2/4]A2z2||
|:e3d cA[Ec]e|fef^g a3f|efed c2Ac|BABc BcdB|
e3d cA[Ec]e|fef^g a3f|efed c2Ac|BA^GB A4:|
"VARIATION OF C PART, PLAYED 2ND TIME"
A2cA BAcA|dBBd cAAB|=G2cA BAcA|dBBd cAAB|
F2cA BAcA|dBBd cAAB|=G2cA BAcA|dBBd cAAB|[M:2/4]A2z2||

